lib/healthicons/icons/solid/devices/oxygen_tank.svg

<svg width="48" height="48" viewBox="0 0 48 48" fill="none" xmlns="http://www.w3.org/2000/svg">
<path fill-rule="evenodd" clip-rule="evenodd" d="M19 6.04785H17V8.04785H22V10.0479H17V12.1308C19.8377 12.6069 22 15.0749 22 18.0479V20.0479H10V18.0479C10 15.0749 12.1623 12.6069 15 12.1308V10.0479H12.8293C12.4175 11.213 11.3062 12.0479 10 12.0479C8.34315 12.0479 7 10.7047 7 9.04785C7 7.391 8.34315 6.04785 10 6.04785C11.3062 6.04785 12.4175 6.88266 12.8293 8.04785H15V6.04785H13V4.04785H19V6.04785ZM10 22.0479V43.0479C10 43.6001 10.4477 44.0479 11 44.0479H21C21.5523 44.0479 22 43.6001 22 43.0479V22.0479H10ZM10 8.04785C9.44772 8.04785 9 8.49557 9 9.04785C9 9.60014 9.44772 10.0479 10 10.0479C10.5523 10.0479 11 9.60014 11 9.04785C11 8.49557 10.5523 8.04785 10 8.04785ZM26 21.0479C26 18.8387 27.7909 17.0479 30 17.0479C32.2091 17.0479 34 18.8387 34 21.0479V27.0479C34 29.257 32.2091 31.0479 30 31.0479C27.7909 31.0479 26 29.257 26 27.0479V21.0479ZM30 19.0479C28.8954 19.0479 28 19.9433 28 21.0479V27.0479C28 28.1524 28.8954 29.0479 30 29.0479C31.1046 29.0479 32 28.1524 32 27.0479V21.0479C32 19.9433 31.1046 19.0479 30 19.0479ZM35 26.0479H38C38.5523 26.0479 39 26.4956 39 27.0479C39 27.6001 38.5523 28.0479 38 28.0479C36.3431 28.0479 35 29.391 35 31.0479V33.0479C35 33.6001 35.4477 34.0479 36 34.0479H41V32.0479H37V31.0479C37 30.4956 37.4477 30.0479 38 30.0479C39.6569 30.0479 41 28.7047 41 27.0479C41 25.391 39.6569 24.0479 38 24.0479H35V26.0479Z" fill="#333333"/>
</svg>

<svg fill="none" height="48" viewBox="0 0 48 48" width="48" xmlns="http://www.w3.org/2000/svg"><path clip-rule="evenodd" d="m19 6.04785h-2v2h5v2.00005h-5v2.0829c2.8377.4761 5 2.9441 5 5.9171v2h-12v-2c0-2.973 2.1623-5.441 5-5.9171v-2.0829h-2.1707c-.4118 1.1651-1.5231 2-2.8293 2-1.65685 0-3-1.3432-3-3.00005s1.34315-3 3-3c1.3062 0 2.4175.83481 2.8293 2h2.1707v-2h-2v-2h6zm-9 16.00005v21c0 .5522.4477 1 1 1h10c.5523 0 1-.4478 1-1v-21zm0-14.00005c-.55228 0-1 .44772-1 1 0 .55229.44772 1.00005 1 1.00005.5523 0 1-.44776 1-1.00005 0-.55228-.4477-1-1-1zm16 13.00005c0-2.2092 1.7909-4 4-4s4 1.7908 4 4v6c0 2.2091-1.7909 4-4 4s-4-1.7909-4-4zm4-2c-1.1046 0-2 .8954-2 2v6c0 1.1045.8954 2 2 2s2-.8955 2-2v-6c0-1.1046-.8954-2-2-2zm5 7h3c.5523 0 1 .4477 1 1 0 .5522-.4477 1-1 1-1.6569 0-3 1.3431-3 3v2c0 .5522.4477 1 1 1h5v-2h-4v-1c0-.5523.4477-1 1-1 1.6569 0 3-1.3432 3-3 0-1.6569-1.3431-3-3-3h-3z" fill="#333" fill-rule="evenodd"/></svg>
